packages/sources/assets/src/assets/flag-gw.svg

<svg width="28" height="20" viewBox="0 0 28 20" fill="none" xmlns="http://www.w3.org/2000/svg">
<rect width="28" height="20" rx="2" fill="white"/>
<mask id="mask0_503_3578" style="mask-type:alpha" maskUnits="userSpaceOnUse" x="0" y="0" width="28" height="20">
<rect width="28" height="20" rx="2" fill="white"/>
</mask>
<g mask="url(#mask0_503_3578)">
<path fill-rule="evenodd" clip-rule="evenodd" d="M0 20H28V9.33334H0V20Z" fill="#1AB558"/>
<path fill-rule="evenodd" clip-rule="evenodd" d="M0 9.33333H28V0H0V9.33333Z" fill="#FFD952"/>
<path fill-rule="evenodd" clip-rule="evenodd" d="M0 20H10.6667V0H0V20Z" fill="#E72B42"/>
<path fill-rule="evenodd" clip-rule="evenodd" d="M5.33333 11.2784L3.37405 12.6967L4.11754 10.395L2.16314 8.96993L4.58193 8.96577L5.33333 6.66666L6.08473 8.96577L8.50352 8.96993L6.54913 10.395L7.29262 12.6967L5.33333 11.2784Z" fill="#262626"/>
</g>
</svg>

<svg width="28" height="20" fill="none" xmlns="http://www.w3.org/2000/svg"><rect width="28" height="20" rx="2" fill="#fff"/><mask id="a" style="mask-type:alpha" maskUnits="userSpaceOnUse" x="0" y="0" width="28" height="20"><rect width="28" height="20" rx="2" fill="#fff"/></mask><g mask="url(#a)" fill-rule="evenodd" clip-rule="evenodd"><path d="M0 20h28V9.333H0V20Z" fill="#1AB558"/><path d="M0 9.333h28V0H0v9.333Z" fill="#FFD952"/><path d="M0 20h10.667V0H0v20Z" fill="#E72B42"/><path d="m5.333 11.278-1.959 1.419.744-2.302L2.163 8.97l2.419-.004.751-2.3.752 2.3 2.419.004-1.955 1.425.744 2.302-1.96-1.419Z" fill="#262626"/></g></svg>
